src/images_karasa_jaga_svg/cmd/sc_flowchartshapes.flowchart-delay.svg

<svg height="16" viewBox="0 0 4.2333333 4.2333335" width="16" xmlns="http://www.w3.org/2000/svg" xmlns:xlink="http://www.w3.org/1999/xlink"><linearGradient id="a" gradientUnits="userSpaceOnUse" x1="72.008766" x2="72.008766" y1="121.89668" y2="6.103257"><stop offset="0" stop-color="#fff"/><stop offset=".50643778" stop-color="#fff"/><stop offset=".82296139" stop-color="#f1f1f1"/><stop offset=".90625" stop-color="#eaeaea"/><stop offset="1" stop-color="#dfdfdf"/></linearGradient><linearGradient id="b" gradientUnits="userSpaceOnUse" x1=".001953" x2="128" y1="64" y2="64"><stop offset="0" stop-color="#7c9fcf"/><stop offset=".5" stop-color="#7c9ece"/><stop offset="1" stop-color="#7b9dcf"/></linearGradient><path d="m8 8.0019531a7.9985787 7.9985787 0 0 0 -7.99804687 7.9980469v96a7.9985787 7.9985787 0 0 0 7.99804687 7.99805h65.785156a7.9985787 7.9985787 0 0 0 1.746094-.19922c13.789104-.8854 27.18922-7.01293 36.7832-16.96289 9.93088-10.299354 15.6769-24.524735 15.68555-38.832034a7.9985787 7.9985787 0 0 0 0-.01367c-.0168-14.301981-5.76714-28.517852-15.69727-38.810548-9.5527-9.901498-22.875285-16.0098635-36.597652-16.9355474a7.9985787 7.9985787 0 0 0 -1.919922-.2421875z" fill="url(#b)" transform="matrix(.03307292 0 0 .03307292 -.000032 0)"/><path d="m8 16v96h65.785156v-.0684a47.993573 47.993573 0 0 0 46.216794-47.9316 47.993573 47.993573 0 0 0 -46.216794-47.904297v-.095703z" fill="url(#a)" transform="matrix(.03307292 0 0 .03307292 -.000032 0)"/></svg>

<?xml version="1.0" encoding="UTF-8" standalone="no"?>
<!-- Created with Inkscape (http://www.inkscape.org/) -->

<svg
   xmlns:dc="http://purl.org/dc/elements/1.1/"
   xmlns:cc="http://creativecommons.org/ns#"
   xmlns:rdf="http://www.w3.org/1999/02/22-rdf-syntax-ns#"
   xmlns:svg="http://www.w3.org/2000/svg"
   xmlns="http://www.w3.org/2000/svg"
   xmlns:xlink="http://www.w3.org/1999/xlink"
   xmlns:sodipodi="http://sodipodi.sourceforge.net/DTD/sodipodi-0.dtd"
   xmlns:inkscape="http://www.inkscape.org/namespaces/inkscape"
   width="128"
   height="128"
   viewBox="0 0 33.866666 33.866668"
   version="1.1"
   id="svg8"
   inkscape:version="0.92.3 (unknown)"
   sodipodi:docname="sc_flowchartshapes.flowchart-delay.svg"
   inkscape:export-filename="/home/rizmut/Dokumen/Rizmut/Github/libreoffice-style-karasa-jaga/build/images_karasa_jaga/cmd/sc_flowchartshapes.flowchart-delay.png"
   inkscape:export-xdpi="12.000001"
   inkscape:export-ydpi="12.000001">
  <defs
     id="defs2">
    <linearGradient
       id="linearGradient7422">
      <stop
         style="stop-color:#7c9fcf;stop-opacity:1"
         offset="0"
         id="stop7424" />
      <stop
         id="stop5348"
         offset="0.5"
         style="stop-color:#7c9ece;stop-opacity:1" />
      <stop
         id="stop7426"
         offset="1"
         style="stop-color:#7b9dcf;stop-opacity:1" />
    </linearGradient>
    <linearGradient
       inkscape:collect="always"
       xlink:href="#linearGradient3369"
       id="linearGradient861"
       x1="64"
       y1="128"
       x2="64"
       y2="0"
       gradientUnits="userSpaceOnUse"
       gradientTransform="matrix(0.90463616,0,0,0.90463616,14.112051,6.1032567)" />
    <linearGradient
       id="linearGradient3369">
      <stop
         id="stop3372"
         offset="0"
         style="stop-color:#ffffff;stop-opacity:1;" />
      <stop
         style="stop-color:#ffffff;stop-opacity:1;"
         offset="0.50643778"
         id="stop3374" />
      <stop
         style="stop-color:#f1f1f1;stop-opacity:1;"
         offset="0.82296139"
         id="stop3376" />
      <stop
         id="stop3378"
         offset="0.90625"
         style="stop-color:#eaeaea;stop-opacity:1;" />
      <stop
         id="stop3384"
         offset="1"
         style="stop-color:#dfdfdf;stop-opacity:1;" />
    </linearGradient>
    <linearGradient
       inkscape:collect="always"
       xlink:href="#linearGradient7422"
       id="linearGradient8813"
       x1="0.001953125"
       y1="64"
       x2="128"
       y2="64"
       gradientUnits="userSpaceOnUse" />
  </defs>
  <sodipodi:namedview
     id="base"
     pagecolor="#ffffff"
     bordercolor="#666666"
     borderopacity="1.0"
     inkscape:pageopacity="0.0"
     inkscape:pageshadow="2"
     inkscape:zoom="1.979899"
     inkscape:cx="0.14000893"
     inkscape:cy="77.158773"
     inkscape:document-units="mm"
     inkscape:current-layer="layer1"
     showgrid="true"
     units="px"
     inkscape:window-width="1366"
     inkscape:window-height="706"
     inkscape:window-x="0"
     inkscape:window-y="0"
     inkscape:window-maximized="1"
     inkscape:snap-global="false">
    <inkscape:grid
       type="xygrid"
       id="grid1421"
       spacingx="2.1166667"
       spacingy="2.1166667"
       empspacing="2" />
  </sodipodi:namedview>
  <metadata
     id="metadata5">
    <rdf:RDF>
      <cc:Work
         rdf:about="">
        <dc:format>image/svg+xml</dc:format>
        <dc:type
           rdf:resource="http://purl.org/dc/dcmitype/StillImage" />
        <dc:title></dc:title>
      </cc:Work>
    </rdf:RDF>
  </metadata>
  <g
     inkscape:label="Layer 1"
     inkscape:groupmode="layer"
     id="layer1"
     transform="translate(0,-263.13332)">
    <path
       sodipodi:type="inkscape:offset"
       inkscape:radius="7.9977789"
       inkscape:original="M 8 16 L 8 112 L 73.785156 112 L 73.785156 111.93164 A 47.993573 47.993573 0 0 0 120.00195 64 A 47.993573 47.993573 0 0 0 73.785156 16.095703 L 73.785156 16 L 8 16 z "
       style="fill:url(#linearGradient8813);fill-opacity:1.0;stroke:none;stroke-width:4.39464855;stroke-linecap:round;stroke-linejoin:bevel;stroke-opacity:0.73039198"
       id="path8803"
       d="M 8,8.0019531 A 7.9985787,7.9985787 0 0 0 0.00195313,16 v 96 A 7.9985787,7.9985787 0 0 0 8,119.99805 h 65.785156 a 7.9985787,7.9985787 0 0 0 1.746094,-0.19922 c 13.789104,-0.8854 27.18922,-7.01293 36.7832,-16.96289 C 122.24533,92.536586 127.99135,78.311205 128,64.003906 a 7.9985787,7.9985787 0 0 0 0,-0.01367 C 127.9832,49.688255 122.23286,35.472384 112.30273,25.179688 102.75003,15.27819 89.427445,9.1698245 75.705078,8.2441406 A 7.9985787,7.9985787 0 0 0 73.785156,8.0019531 Z"
       transform="matrix(0.26458333,0,0,0.26458333,0,263.13332)" />
    <path
       style="fill:url(#linearGradient861);fill-opacity:1;stroke:none;stroke-width:4.39464855;stroke-linecap:round;stroke-linejoin:bevel;stroke-opacity:0.73039198"
       d="M 8 16 L 8 112 L 73.785156 112 L 73.785156 111.93164 A 47.993573 47.993573 0 0 0 120.00195 64 A 47.993573 47.993573 0 0 0 73.785156 16.095703 L 73.785156 16 L 8 16 z "
       transform="matrix(0.26458333,0,0,0.26458333,0,263.13332)"
       id="circle2" />
  </g>
</svg>
